X: 1
T: String Quartet in D Major opus 64 no 5 mvt 2
C: Franz Joseph Haydn
%%abc-version 2.0
%%abcx-abcm2ps-target-version 5.9.1 (29 Sep 2008)
%%abc-creator hum2abc beta
%%abcx-conversion-date 2021/02/14 14:38:32
%%abc-copyright Copyright (c) 1994, 2000 Center for Computer Assisted Research in the Humanities
%%abc-edited-by Frances Bennion
%%abcx-initial-encoding-date 1997/04/15
%%gracespace 0 6 6
%%humdrum-veritas 990539903
%%humdrum-veritas-data 3613871565
%%linebreak <none>
%%barnumbers 0
L: 1/8
M: 3/4
N: Derived from op64n5-02.krn
Q: "Adagio"
%%staves [1 2 3 4]
V: 1
V: 2
V: 3 clef=alto
V: 4 clef=bass
K: A
[V:1]c3/d//c// B2 A2 [I:setbarnb2] |
[V:2]E2 D2 C2 |
[V:3]E,2 G,2 A,2 |
[V:4]A,,6 |
[V:1]A2 GA Bc |
[V:2]B,2 >C2 B,A, |
[V:3]D2 >A,2 G,=G, |
[V:4]E,6 |
[V:1]d3/e//d// c2 B2 |
[V:2]A,2 G,4 |
[V:3]F,2 B,4 |
[V:4]D,6 |
[V:1]e2 z2 A//B//c//d//e//f//g//a// |
[V:2]A,2 z4 |
[V:3]E,2 z4 |
[V:4]C,2 z4 |
[V:1]a>f f7/ f/ |
[V:2]zA AA AA |
[V:3]zF FF FF |
[V:4]zD DD DD |
[V:1]f>B (3:2:2B2-B//c/d/ ^d/|
[V:2]zG GG GG |
[V:3]zE EE EE |
[V:4]zD DD DD |
[V:1]e3 d2 c- |
[V:2]zE GB2 A- |
[V:3]zA EE2 F |
[V:4]zC B,G, A,^D, |
[V:1]c^A2 <B2 ^B |
[V:2]A^^F G2 z2 |
[V:3]E4 z2 |
[V:4]E,2 E,,2 z2 |
[V:1]c3/d//c// B2 A2 |
[V:2]E3/F//E// D2 C2 |
[V:3]E,2 G,2 A,2 |
[V:4]A,,6 |
[V:1]A2 GA Bc |
[V:2]B,2 >C2 B,A, |
[V:3]D2 >A,2 G,=G, |
[V:4]E,6 |
[V:1]d3/e//d// c2 B2 |
[V:2]A,2 G,4 |
[V:3]F,2 B,4 |
[V:4]D,6 |
[V:1]e2 z2 A//B//c//d//(3:2:6e//f//g//a//b// c'//|
[V:2]A,2 z4 |
[V:3]E,2 z4 |
[V:4]C,2 z4 |
[V:1]c'>f (3:2:2f2-f//g/a/ ^a/|
[V:2]z^D DD DD |
[V:3]zB, B,B, B,B, |
[V:4]zA, A,A, A,A, |
[V:1]b>g e3 g- |
[V:2]zB, EE EE |
[V:3]zE B,B, B,B, |
[V:4]zG, G,G, G,G, |
[V:1]gf2 e2 ^d |
[V:2]F2 G2 A2 |
[V:3]C>^D E2 F2 |
[V:4]A,2 B,2 B,,2 |
[V:1]^d2 ez3 |
[V:2]A2 Gz3 |
[V:3]F2 Ez3 |
[V:4]E,2 E,,2 z2 |
[V:1]e>A A3 e |
[V:2]zE EE EE |
[V:3]zA, A,A, A,A, |
[V:4]z=C, C,C, C,C, |
[V:1]e>G G3 e |
[V:2]zE EE EE |
[V:3]zG, G,G, G,G, |
[V:4]zB,, B,,B,, B,,B,, |
[V:1]e2 >=f2 =ge |
[V:2]zE ED =CC |
[V:3]z=G, G,=F, E,G, |
[V:4]z_B,, B,,B,, B,,B,, |
[V:1]e2 =f3 e |
[V:2]=C4 z2 |
[V:3]=G,2 =F,2 z2 |
[V:4]A,,4 z2 |
[V:1]e2 ^d3 d |
[V:2]zA B=c BA |
[V:3]z=C B,A, B,C |
[V:4]z=F, F,F, F,F, |
[V:1]^d2 e3 =d |
[V:2]A2 G2 z2 |
[V:3]=C2 B,2 z2 |
[V:4]E,4 z2 |
[V:1]c3/d//c// B2 A2 |
[V:2]E3/F//E// D2 C2 |
[V:3]E,2 G,2 A,2 |
[V:4]A,,6 |
[V:1]A2 GA Bc |
[V:2]B,2 >C2 B,A, |
[V:3]D2 >A,2 G,=G, |
[V:4]E,6 |
[V:1]d3/e//d// c2 B2 |
[V:2]A,2 G,4 |
[V:3]F,2 B,4 |
[V:4]D,6 |
[V:1]e2 z2 A//B//c//d//e//f//g//a// |
[V:2]A,2 z4 |
[V:3]E,2 z4 |
[V:4]C,2 z4 |
[V:1]a>f f3 d' |
[V:2]zA AA AA |
[V:3]zF FF FF |
[V:4]zD DD DD |
[V:1]d'2 G,2 z2 |
[V:2]zE E2 z2 |
[V:3]zD D2 z2 |
[V:4]zB, B,2 z2 |
[V:1]b2 ^e2 f2 |
[V:2]z2 d2 d2 |
[V:3]z2 B2 B2 |
[V:4]z2 =G2 F2 |
[V:1]g2 a2 z2 |
[V:2]d2 c2 z2 |
[V:3]B2 A2 z2 |
[V:4]^E2 F2 z2 |
[V:1]f2 e2 ^d2 |
[V:2]A6 |
[V:3]D2 C2 =C2 |
[V:4]D,D, E,E, =F,F, |
[V:1]e3 f/e/ d/c/B/A/ |
[V:2]A,6 |
[V:3]C6 |
[V:4]E,6 |
[V:1]A2 GB dG |
[V:2]D6- |
[V:3]B,6 |
[V:4]E,,6 |
[V:1]B2 Az3 |
[V:2]D2 Cz3 |
[V:3]G,2 A,z3 |
[V:4]A,,4 z2 |
[V:1]z4 z2 |
[V:2]e3/=f//e// d2 =c2 |
[V:3]=c3/d//c// B2 A2 |
[V:4]z6 |
[V:1]=f3/=g//f// e2 d2 |
[V:2]B6 |
[V:3]G6 |
[V:4]z6 |
[V:1]=c4 a2 |
[V:2]A4 =c2 |
[V:3]A2 z2 ^D2 |
[V:4]=F3/=G//F// E2 ^D2 |
[V:1]=c2 B2 z2 |
[V:2]A2 G2 z2 |
[V:3]E2 z4 |
[V:4]E4 z2 |
[V:1]E3/=F//E// D2 =C2 |
[V:2]=G,2 B,2 =C2 |
[V:3]=G,2 =F,2 E,G, |
[V:4]=C,,2 D,,2 E,,2 |
[V:1]=CA2 <A2 =G |
[V:2]=C6 |
[V:3]A,=F2 <F2 E |
[V:4]=F,,4- F,,=G,, |
[V:1]=GF2 <=F2 E |
[V:2]=C2 >D2 =G,C |
[V:3]A,2 z=G, D=C |
[V:4]A,,2 >B,,2 =C,F,, |
[V:1]E2 D=G, B,D |
[V:2]=C2 B,2 z2 |
[V:3]=G,2 z4 |
[V:4]=G,,4 z2 |
[V:1]=F3/(3E//D//=C// B,>C D/E/F/^F/ |
[V:2]z=G, G,G, G,G, |
[V:3]z=F, F,F, F,F, |
[V:4]zD, D,D, D,D, |
[V:1]=G3/(3=F//E//D// C4 |
[V:2]z_B, B,B, B,B, |
[V:3]z=G, G,G, G,G, |
[V:4]zE, E,E, E,E, |
[V:1](3D/A/G/(3A/=F/D/ =C2 D3/C/ |
[V:2]A,D =C2 B,2 |
[V:3]A,=F, E,2 F,2 |
[V:4]=F,=F,, =G,,4 |
[V:1]=C2 >E2 EE |
[V:2]=C2 >C2 CC |
[V:3]E,2 z4 |
[V:4]=C,2 =C,,2 z2 |
[V:1]E3/=F//E// DD =CC |
[V:2]=C3/D//C// B,B, A,A, |
[V:3]E,6 |
[V:4]G,,4 A,,2 |
[V:1]=C2 B,E EE |
[V:2]A,2 G,2 E2 |
[V:3]E,2 zG, G,G, |
[V:4]E,,2 E,2 z2 |
[V:1]A2 >B2 =c^D |
[V:2]E3/=F//E// D2 ^D2 |
[V:3]A,2 z2 A,2 |
[V:4]=F,,6 |
[V:1]^D2 EF/G/ A/^A/B/^B/ |
[V:2]^D2 E2 z2 |
[V:3]A,2 G,2 z2 |
[V:4]E,,2 E,2 z2 |
[V:1]c3/d//c// B2 A2 |
[V:2]E2 D2 C2 |
[V:3]E,2 G,2 A,2 |
[V:4]A,,6 |
[V:1]A2 G/e/A/e/ B/e/c/e/ |
[V:2]B,2 >C2 B,A, |
[V:3]D2 >A,2 G,=G, |
[V:4]E,6 |
[V:1]dd//c//d//e// f2 e/d/c/B/ |
[V:2]A,2 G,4 |
[V:3]F,2 B,4 |
[V:4]D,6 |
[V:1]e2 z2 A//B//c//d//e//f//g//a// |
[V:2]A,2 z4 |
[V:3]E,2 z4 |
[V:4]C,2 z4 |
[V:1]a>f f3/^e//f// e//f//e//f//e//f//g//f// |
[V:2]zA AA AA |
[V:3]zF FF FF |
[V:4]zD DD DD |
[V:1]f3/(3e//d//c// B>B (3^A/B/^B/(3c/d/^d/ |
[V:2]zG GG GG |
[V:3]zE EE EE |
[V:4]zD DD DD |
[V:1]ee >^dz/=d/ z/c/z/c//a// |
[V:2]zE GB2 A |
[V:3]zA EE2 F |
[V:4]zC B,G, A,^D, |
[V:1]c/d/^d/e/ B3 ^B |
[V:2]A2 G2 z2 |
[V:3]E4 z2 |
[V:4]E,2 E,,2 z2 |
[V:1]c/>d/e3//d/8c/8 B/>c/d3//c/8B/8 AA |
[V:2]E2 D2 C2 |
[V:3]E,2 G,2 A,2 |
[V:4]A,,6 |
[V:1]A2 G/G/B/A/ c/B/d/c/ |
[V:2]B,2 >C2 B,A, |
[V:3]D2 >A,2 G,=G, |
[V:4]E,6 |
[V:1]ed f2 e/d/c/B/ |
[V:2]A,2 G,4 |
[V:3]F,2 B,4 |
[V:4]D,6 |
[V:1]e2 z2 (3A,/C/E/(3A/c/e/ |
[V:2]A,2 z4 |
[V:3]E,2 z4 |
[V:4]C,2 z4 |
[V:1](3a/c'/b/(3a/g/f/ (3e/^d/c/(3B/^A/B/ (3c/d/e/(3f/g/a/ |
[V:2]z^D DD DD |
[V:3]zB, B,B, B,B, |
[V:4]zA, A,A, A,A, |
[V:1]^a(3:2:12b2 b/g/e/b/ g/e/e'/^d'/ c'/b/=a/|
[V:2]zB, EE EE |
[V:3]zE B,B, B,B, |
[V:4]zG, G,G, G,G, |
[V:1](3g/f/g/(3a/g/f/ (3z/e/f/(3g/f/e/ (3z/^d/f/(3a/b/d/ |
[V:2]F2 G2 A2 |
[V:3]C^D E2 F2 |
[V:4]A,2 B,2 B,,2 |
[V:1]f2 ez3 |
[V:2]A2 Gz3 |
[V:3]^D2 Ez3 |
[V:4]E,2 E,,E, E,D, |
[V:1]e>A (3A2>>B2 =c/(3^c/d/^d/ |
[V:2]zE EE EE |
[V:3]zA, A,A, A,A, |
[V:4]z=C, C,C, C,C, |
[V:1]e>G (3G2>>E2 e/(3E/e/E/ |
[V:2]zE EE EE |
[V:3]zG, G,G, G,G, |
[V:4]zB,, B,,B,, B,,B,, |
[V:1](3e2>>E2 e/(3=f/=F/f/ (3=g/=G/g/(3e/E/e/ |
[V:2]zE ED =CC |
[V:3]z=G, G,=F, E,G, |
[V:4]z_B,, B,,B,, B,,B,, |
[V:1]e/e/=g/=f/ f2 (3=F/A/=c/(3f/a/f/ |
[V:2]z=C CC CC |
[V:3]z=F, F,F, F,F, |
[V:4]zA,, A,,A,, A,,A,, |
[V:1]e2 ^dd dd |
[V:2]zA B=c BA |
[V:3]z=C B,A, B,C |
[V:4]z=F,, F,,F,, F,,F,, |
[V:1]^d/d/f/e/ e2 d=d |
[V:2]A2 G2 AB |
[V:3]=C2 B,2 A,E, |
[V:4]E,,4 F,,G,, |
[V:1]c3/d//c// B2 A2 |
[V:2]E3/F//E// D2 C2 |
[V:3]E,2 G,2 A,2 |
[V:4]A,,6 |
[V:1]A2 (3G/e/e/(3A/f/e/ (3B/f/e/(3d/c/a/ |
[V:2]B,2 >C2 B,A, |
[V:3]D2 >A,2 G,=G, |
[V:4]E,6 |
[V:1](3a/c/d/(3e/c/d/ f2 e/d/c/B/ |
[V:2]A,2 G,4 |
[V:3]F,2 B,4 |
[V:4]D,6 |
[V:1]e2 z2 (3C/E/A/(3c/e/a/ |
[V:2]A,2 z4 |
[V:3]E,2 z4 |
[V:4]C,2 z4 |
[V:1]a2 fz (3D/F/A/d//f//a//d'// |
[V:2]zA AA AA |
[V:3]zF FF FF |
[V:4]zD DD DD |
[V:1]f'2 G,2 z2 |
[V:2]zE E2 z2 |
[V:3]zD D2 z2 |
[V:4]zB, B,2 z2 |
[V:1]b2 ^e2 f2 |
[V:2]z2 d2 d2 |
[V:3]z2 B2 B2 |
[V:4]z2 =G2 F2 |
[V:1]g>g a2 z2 |
[V:2]d2 c2 z2 |
[V:3]B2 A2 z2 |
[V:4]^E2 F2 z2 |
[V:1]f3/(3a//g//f// e3/a/8g/8f/8e/8 (3^d/f/g/(3a/f/d/ |
[V:2]A6 |
[V:3]D2 C2 =C2 |
[V:4]D,D, E,E, F,F, |
[V:1](3e/c'/a/(3e/e'/c'/ (3a/e'/d'/(3c'/b/a/ (3g/f/e/(3d/c/B/ |
[V:2]A,6 |
[V:3]C6 |
[V:4]E,6 |
[V:1]A2 (3G/B/A/(3c/B/d/ (3c/e/c/(3d/B/G/ |
[V:2]D6 |
[V:3]B,6 |
[V:4]E,,6 |
[V:1]B4 Az |]
[V:2]D4 Cz |]
[V:3]G,4 A,z |]
[V:4]A,,4 z2 |]

